X: 21751
T: King Of The Fairies
R: hornpipe
M: 4/4
K: Eminor
efed B2B2|efed B2B2|fgaf A2d2|fgaf A3z|
b2gb a2fa|g2eg f3z|edef gfed|e2ff2g2z2|
efed B2B2|efed B2B2|dcBA cBAG|FGAF D2EF|
GFGA BABd|edef g2e2|dcBA BAGF|E 3(DEF E3z||

